release/img/icons/Person.svg

<svg width="17" height="17" viewBox="0 0 17 17" fill="none" xmlns="http://www.w3.org/2000/svg">
<path d="M8.5 8.53369C10.71 8.53369 12.5 6.74369 12.5 4.53369C12.5 2.32369 10.71 0.533691 8.5 0.533691C6.29 0.533691 4.5 2.32369 4.5 4.53369C4.5 6.74369 6.29 8.53369 8.5 8.53369ZM8.5 10.5337C5.83 10.5337 0.5 11.8737 0.5 14.5337V16.5337H16.5V14.5337C16.5 11.8737 11.17 10.5337 8.5 10.5337Z" fill="white"/>
</svg>

<svg width="17" height="17" fill="none" xmlns="http://www.w3.org/2000/svg"><path d="M8.5 8.534c2.21 0 4-1.79 4-4s-1.79-4-4-4-4 1.79-4 4 1.79 4 4 4zm0 2c-2.67 0-8 1.34-8 4v2h16v-2c0-2.66-5.33-4-8-4z" fill="#fff"/></svg>
